!!!OTL: EINST SASS ICH IN DER LAUBE
!!!ARE: Europa, Mitteleuropa, Deutschland, Hessen, Ober - Lahnkreis; Hanau
!!!SCT: E0708A
!!!YEM: Copyright 1995, estate of Helmut Schaffrath.
**kern
*ICvox
*Ivox
*M2/4
*k[b-]
*F:
{8c
=1
8f
8a
8a
8cc
=2
4cc
8dd}
{8cc
=3
8cc
8b-
8b-
8a
=4
4g
8r}
{8f
=5
8e
8g
8a
8b-
=6
4dd
8cc}
{8b-
=7
8b-
8a
8a
8cc
=8
4cc
8r}
{8c
=9
8f
8a
8cc
8ff
=10
4ff
8ee}
{8dd
=11
8cc
8a
8b-
8cc
=12
4a
8r}
==
!!!AGN: Liebes - Lied, Leid, Klage
!!!ONB: ESAC (Essen Associative Code) Database: ERK2
!!!AMT: simple duple
!!!AIN: vox
!!!EED: Helmut Schaffrath
!!!EEV: 1.0
*-
